X: 11996
T: Eoghan Dubh
R: reel
M: 4/4
K: Bminor
A|:BFFB AFEF|D2fe fBBd|A2de fgfe|fdBA FEEA|
BFFB AFEF|D2fe fBBd|A2de fgfe|1 dBAFD2DA:|2 dBAFD2f/g/||
|:afef dBBA|d2fe fBBd|A2fdB2ed|e2fe dBBd|
[1afef dBBA|d2fe fBBd|a2fd edef|dBAFD2f/g/:|
[2BFFB AFEF|D2fe fBBd|A2de fgfe|dBAFD2||

